src/pos-icons/y-combinator.svg

<svg height="24" viewBox="0 0 24 24" width="24" xmlns="http://www.w3.org/2000/svg"><path d="m2 2h20v20h-20zm9.25 15.5h1.5v-4.44l3.25-6.06h-1.5l-2.5 4.66-2.5-4.66h-1.5l3.25 6.06z"/></svg>

<?xml version="1.0" encoding="UTF-8"?><!DOCTYPE svg PUBLIC "-//W3C//DTD SVG 1.1//EN" "http://www.w3.org/Graphics/SVG/1.1/DTD/svg11.dtd"><svg xmlns="http://www.w3.org/2000/svg" xmlns:xlink="http://www.w3.org/1999/xlink" version="1.1" id="mdi-y-combinator" width="24" height="24" viewBox="0 0 24 24"><path d="M2,2H22V22H2V2M11.25,17.5H12.75V13.06L16,7H14.5L12,11.66L9.5,7H8L11.25,13.06V17.5Z" /></svg>
